images/50507062.svg

<?xml version="1.0" encoding="UTF-8"?>
<svg xmlns="http://www.w3.org/2000/svg" xmlns:xlink="http://www.w3.org/1999/xlink" width="300pt" height="300pt" viewBox="0 0 300 300" version="1.1">
<defs>
<g>
<symbol overflow="visible" id="glyph0-0">
<path style="stroke:none;" d="M 0.59375 2.125 L 0.59375 -8.46875 L 6.59375 -8.46875 L 6.59375 2.125 Z M 1.265625 1.453125 L 5.9375 1.453125 L 5.9375 -7.78125 L 1.265625 -7.78125 Z M 1.265625 1.453125 "/>
</symbol>
<symbol overflow="visible" id="glyph0-1">
<path style="stroke:none;" d="M 6.421875 -8.46875 L 6.421875 -7.3125 C 5.972656 -7.519531 5.546875 -7.675781 5.140625 -7.78125 C 4.742188 -7.894531 4.363281 -7.953125 4 -7.953125 C 3.351562 -7.953125 2.851562 -7.828125 2.5 -7.578125 C 2.15625 -7.328125 1.984375 -6.96875 1.984375 -6.5 C 1.984375 -6.113281 2.097656 -5.820312 2.328125 -5.625 C 2.554688 -5.425781 3 -5.269531 3.65625 -5.15625 L 4.359375 -5 C 5.242188 -4.832031 5.894531 -4.535156 6.3125 -4.109375 C 6.738281 -3.691406 6.953125 -3.128906 6.953125 -2.421875 C 6.953125 -1.566406 6.664062 -0.921875 6.09375 -0.484375 C 5.53125 -0.046875 4.695312 0.171875 3.59375 0.171875 C 3.1875 0.171875 2.75 0.125 2.28125 0.03125 C 1.8125 -0.0625 1.328125 -0.203125 0.828125 -0.390625 L 0.828125 -1.609375 C 1.304688 -1.335938 1.773438 -1.132812 2.234375 -1 C 2.703125 -0.863281 3.15625 -0.796875 3.59375 -0.796875 C 4.269531 -0.796875 4.789062 -0.925781 5.15625 -1.1875 C 5.53125 -1.457031 5.71875 -1.835938 5.71875 -2.328125 C 5.71875 -2.753906 5.582031 -3.085938 5.3125 -3.328125 C 5.050781 -3.578125 4.617188 -3.757812 4.015625 -3.875 L 3.296875 -4.015625 C 2.410156 -4.191406 1.769531 -4.46875 1.375 -4.84375 C 0.988281 -5.21875 0.796875 -5.738281 0.796875 -6.40625 C 0.796875 -7.1875 1.066406 -7.796875 1.609375 -8.234375 C 2.148438 -8.679688 2.898438 -8.90625 3.859375 -8.90625 C 4.273438 -8.90625 4.691406 -8.867188 5.109375 -8.796875 C 5.535156 -8.722656 5.972656 -8.613281 6.421875 -8.46875 Z M 6.421875 -8.46875 "/>
</symbol>
<symbol overflow="visible" id="glyph0-2">
<path style="stroke:none;" d="M 1.171875 -8.75 L 2.765625 -8.75 L 6.65625 -1.4375 L 6.65625 -8.75 L 7.796875 -8.75 L 7.796875 0 L 6.203125 0 L 2.328125 -7.3125 L 2.328125 0 L 1.171875 0 Z M 1.171875 -8.75 "/>
</symbol>
<symbol overflow="visible" id="glyph0-3">
<path style="stroke:none;" d="M 1.171875 -8.75 L 2.359375 -8.75 L 2.359375 -5.15625 L 6.65625 -5.15625 L 6.65625 -8.75 L 7.84375 -8.75 L 7.84375 0 L 6.65625 0 L 6.65625 -4.171875 L 2.359375 -4.171875 L 2.359375 0 L 1.171875 0 Z M 1.171875 -8.75 "/>
</symbol>
<symbol overflow="visible" id="glyph1-0">
<path style="stroke:none;" d="M 0.5 1.765625 L 0.5 -7.046875 L 5.5 -7.046875 L 5.5 1.765625 Z M 1.0625 1.21875 L 4.9375 1.21875 L 4.9375 -6.484375 L 1.0625 -6.484375 Z M 1.0625 1.21875 "/>
</symbol>
<symbol overflow="visible" id="glyph1-1">
<path style="stroke:none;" d="M 4.59375 -6.265625 L 4.59375 -3.546875 L 7.3125 -3.546875 L 7.3125 -2.71875 L 4.59375 -2.71875 L 4.59375 0 L 3.78125 0 L 3.78125 -2.71875 L 1.0625 -2.71875 L 1.0625 -3.546875 L 3.78125 -3.546875 L 3.78125 -6.265625 Z M 4.59375 -6.265625 "/>
</symbol>
</g>
</defs>
<g id="surface23113">
<rect x="0" y="0" width="300" height="300" style="fill:rgb(100%,100%,100%);fill-opacity:1;stroke:none;"/>
<path style="fill:none;stroke-width:1.2;stroke-linecap:butt;stroke-linejoin:miter;stroke:rgb(80%,80%,0%);stroke-opacity:1;stroke-miterlimit:10;" d="M 117.066406 89.835938 L 102.640625 83.242188 "/>
<path style="fill:none;stroke-width:1.2;stroke-linecap:butt;stroke-linejoin:miter;stroke:rgb(0%,0%,0%);stroke-opacity:1;stroke-miterlimit:10;" d="M 102.640625 83.242188 L 88.21875 76.648438 "/>
<path style="fill:none;stroke-width:1.2;stroke-linecap:butt;stroke-linejoin:miter;stroke:rgb(0%,0%,0%);stroke-opacity:1;stroke-miterlimit:10;" d="M 113.441406 121.347656 L 115.253906 105.589844 "/>
<path style="fill:none;stroke-width:1.2;stroke-linecap:butt;stroke-linejoin:miter;stroke:rgb(80%,80%,0%);stroke-opacity:1;stroke-miterlimit:10;" d="M 115.253906 105.589844 L 117.066406 89.835938 "/>
<path style=" stroke:none;fill-rule:nonzero;fill:rgb(100%,100%,100%);fill-opacity:1;" d="M 113.066406 82.835938 L 121.066406 82.835938 L 121.066406 96.835938 L 113.066406 96.835938 Z M 113.066406 82.835938 "/>
<g style="fill:rgb(80%,80%,0%);fill-opacity:1;">
  <use xlink:href="#glyph0-1" x="113.066406" y="93.974609"/>
</g>
<path style="fill:none;stroke-width:1.2;stroke-linecap:butt;stroke-linejoin:miter;stroke:rgb(0%,0%,0%);stroke-opacity:1;stroke-miterlimit:10;" d="M 88.21875 76.648438 L 66.761719 100.011719 "/>
<path style="fill:none;stroke-width:1.2;stroke-linecap:butt;stroke-linejoin:miter;stroke:rgb(0%,0%,0%);stroke-opacity:1;stroke-miterlimit:10;" d="M 91.570312 84.035156 L 74.402344 102.722656 "/>
<path style="fill:none;stroke-width:1.2;stroke-linecap:butt;stroke-linejoin:miter;stroke:rgb(0%,0%,0%);stroke-opacity:1;stroke-miterlimit:10;" d="M 66.761719 100.011719 L 74.554688 113.824219 "/>
<path style="fill:none;stroke-width:1.2;stroke-linecap:butt;stroke-linejoin:miter;stroke:rgb(0%,0%,100%);stroke-opacity:1;stroke-miterlimit:10;" d="M 74.554688 113.824219 L 82.351562 127.636719 "/>
<path style="fill:none;stroke-width:1.2;stroke-linecap:butt;stroke-linejoin:miter;stroke:rgb(0%,0%,0%);stroke-opacity:1;stroke-miterlimit:10;" d="M 66.761719 100.011719 L 35.25 96.386719 "/>
<path style="fill:none;stroke-width:1.2;stroke-linecap:butt;stroke-linejoin:miter;stroke:rgb(0%,0%,100%);stroke-opacity:1;stroke-miterlimit:10;" d="M 82.351562 127.636719 L 97.894531 124.492188 "/>
<path style="fill:none;stroke-width:1.2;stroke-linecap:butt;stroke-linejoin:miter;stroke:rgb(0%,0%,0%);stroke-opacity:1;stroke-miterlimit:10;" d="M 97.894531 124.492188 L 113.441406 121.347656 "/>
<path style="fill:none;stroke-width:1.2;stroke-linecap:butt;stroke-linejoin:miter;stroke:rgb(0%,0%,100%);stroke-opacity:1;stroke-miterlimit:10;" d="M 83.980469 119.691406 L 96.414062 117.175781 "/>
<path style="fill:none;stroke-width:1.2;stroke-linecap:butt;stroke-linejoin:miter;stroke:rgb(0%,0%,0%);stroke-opacity:1;stroke-miterlimit:10;" d="M 96.414062 117.175781 L 108.851562 114.660156 "/>
<path style=" stroke:none;fill-rule:nonzero;fill:rgb(100%,100%,100%);fill-opacity:1;" d="M 78.351562 120.636719 L 87.351562 120.636719 L 87.351562 134.636719 L 78.351562 134.636719 Z M 78.351562 120.636719 "/>
<g style="fill:rgb(0%,0%,100%);fill-opacity:1;">
  <use xlink:href="#glyph0-2" x="78.351562" y="131.775391"/>
</g>
<path style="fill:none;stroke-width:1.2;stroke-linecap:butt;stroke-linejoin:miter;stroke:rgb(0%,0%,0%);stroke-opacity:1;stroke-miterlimit:10;" d="M 113.441406 121.347656 L 136.800781 142.800781 "/>
<path style="fill:none;stroke-width:1.2;stroke-linecap:butt;stroke-linejoin:miter;stroke:rgb(0%,0%,0%);stroke-opacity:1;stroke-miterlimit:10;" d="M 136.800781 142.800781 L 151.933594 138.050781 "/>
<path style="fill:none;stroke-width:1.2;stroke-linecap:butt;stroke-linejoin:miter;stroke:rgb(0%,0%,100%);stroke-opacity:1;stroke-miterlimit:10;" d="M 151.933594 138.050781 L 167.066406 133.296875 "/>
<path style="fill:none;stroke-width:1.2;stroke-linecap:butt;stroke-linejoin:miter;stroke:rgb(0%,0%,0%);stroke-opacity:1;stroke-miterlimit:10;" d="M 142.066406 148.972656 L 154.167969 145.171875 "/>
<path style="fill:none;stroke-width:1.2;stroke-linecap:butt;stroke-linejoin:miter;stroke:rgb(0%,0%,100%);stroke-opacity:1;stroke-miterlimit:10;" d="M 154.167969 145.171875 L 166.273438 141.367188 "/>
<path style="fill:none;stroke-width:1.2;stroke-linecap:butt;stroke-linejoin:miter;stroke:rgb(0%,0%,100%);stroke-opacity:1;stroke-miterlimit:10;" d="M 129.902344 173.761719 L 133.351562 158.28125 "/>
<path style="fill:none;stroke-width:1.2;stroke-linecap:butt;stroke-linejoin:miter;stroke:rgb(0%,0%,0%);stroke-opacity:1;stroke-miterlimit:10;" d="M 133.351562 158.28125 L 136.800781 142.800781 "/>
<path style="fill:none;stroke-width:1.2;stroke-linecap:butt;stroke-linejoin:miter;stroke:rgb(0%,0%,100%);stroke-opacity:1;stroke-miterlimit:10;" d="M 167.066406 133.296875 L 178.746094 144.023438 "/>
<path style="fill:none;stroke-width:1.2;stroke-linecap:butt;stroke-linejoin:miter;stroke:rgb(0%,0%,0%);stroke-opacity:1;stroke-miterlimit:10;" d="M 178.746094 144.023438 L 190.425781 154.753906 "/>
<path style=" stroke:none;fill-rule:nonzero;fill:rgb(100%,100%,100%);fill-opacity:1;" d="M 163.066406 126.296875 L 172.066406 126.296875 L 172.066406 140.296875 L 163.066406 140.296875 Z M 163.066406 126.296875 "/>
<g style="fill:rgb(0%,0%,100%);fill-opacity:1;">
  <use xlink:href="#glyph0-2" x="163.066406" y="137.435547"/>
</g>
<path style="fill:none;stroke-width:1.2;stroke-linecap:butt;stroke-linejoin:miter;stroke:rgb(0%,0%,0%);stroke-opacity:1;stroke-miterlimit:10;" d="M 190.425781 154.753906 L 205.558594 150 "/>
<path style="fill:none;stroke-width:1.2;stroke-linecap:butt;stroke-linejoin:miter;stroke:rgb(0%,0%,100%);stroke-opacity:1;stroke-miterlimit:10;" d="M 205.558594 150 L 220.6875 145.246094 "/>
<path style="fill:none;stroke-width:1.2;stroke-linecap:butt;stroke-linejoin:miter;stroke:rgb(0%,0%,0%);stroke-opacity:1;stroke-miterlimit:10;" d="M 190.425781 154.753906 L 183.527344 185.710938 "/>
<path style="fill:none;stroke-width:1.2;stroke-linecap:butt;stroke-linejoin:miter;stroke:rgb(0%,0%,0%);stroke-opacity:1;stroke-miterlimit:10;" d="M 182.453125 156.226562 L 176.933594 180.992188 "/>
<path style="fill:none;stroke-width:1.2;stroke-linecap:butt;stroke-linejoin:miter;stroke:rgb(0%,0%,100%);stroke-opacity:1;stroke-miterlimit:10;" d="M 220.6875 145.246094 L 224.136719 129.769531 "/>
<path style="fill:none;stroke-width:1.2;stroke-linecap:butt;stroke-linejoin:miter;stroke:rgb(0%,0%,0%);stroke-opacity:1;stroke-miterlimit:10;" d="M 224.136719 129.769531 L 227.589844 114.289062 "/>
<path style=" stroke:none;fill-rule:nonzero;fill:rgb(100%,100%,100%);fill-opacity:1;" d="M 211.6875 138.246094 L 229.6875 138.246094 L 229.6875 152.246094 L 211.6875 152.246094 Z M 211.6875 138.246094 "/>
<g style="fill:rgb(0%,0%,100%);fill-opacity:1;">
  <use xlink:href="#glyph0-2" x="211.6875" y="149.384766"/>
  <use xlink:href="#glyph0-3" x="220.664062" y="149.384766"/>
</g>
<path style="fill:none;stroke-width:1.2;stroke-linecap:butt;stroke-linejoin:miter;stroke:rgb(0%,0%,0%);stroke-opacity:1;stroke-miterlimit:10;" d="M 227.589844 114.289062 L 257.851562 104.78125 "/>
<path style="fill:none;stroke-width:1.2;stroke-linecap:butt;stroke-linejoin:miter;stroke:rgb(0%,0%,0%);stroke-opacity:1;stroke-miterlimit:10;" d="M 228.378906 106.214844 L 252.585938 98.613281 "/>
<path style="fill:none;stroke-width:1.2;stroke-linecap:butt;stroke-linejoin:miter;stroke:rgb(0%,0%,0%);stroke-opacity:1;stroke-miterlimit:10;" d="M 204.226562 92.832031 L 227.589844 114.289062 "/>
<path style="fill:none;stroke-width:1.2;stroke-linecap:butt;stroke-linejoin:miter;stroke:rgb(0%,0%,0%);stroke-opacity:1;stroke-miterlimit:10;" d="M 257.851562 104.78125 L 264.75 73.824219 "/>
<path style="fill:none;stroke-width:1.2;stroke-linecap:butt;stroke-linejoin:miter;stroke:rgb(0%,0%,0%);stroke-opacity:1;stroke-miterlimit:10;" d="M 264.75 73.824219 L 253.070312 63.09375 "/>
<path style="fill:none;stroke-width:1.2;stroke-linecap:butt;stroke-linejoin:miter;stroke:rgb(0%,0%,100%);stroke-opacity:1;stroke-miterlimit:10;" d="M 253.070312 63.09375 L 241.386719 52.367188 "/>
<path style="fill:none;stroke-width:1.2;stroke-linecap:butt;stroke-linejoin:miter;stroke:rgb(0%,0%,0%);stroke-opacity:1;stroke-miterlimit:10;" d="M 257.367188 77.175781 L 248.019531 68.59375 "/>
<path style="fill:none;stroke-width:1.2;stroke-linecap:butt;stroke-linejoin:miter;stroke:rgb(0%,0%,100%);stroke-opacity:1;stroke-miterlimit:10;" d="M 248.019531 68.59375 L 238.675781 60.011719 "/>
<path style="fill:none;stroke-width:1.2;stroke-linecap:butt;stroke-linejoin:miter;stroke:rgb(0%,0%,100%);stroke-opacity:1;stroke-miterlimit:10;" d="M 241.386719 52.367188 L 226.257812 57.121094 "/>
<path style="fill:none;stroke-width:1.2;stroke-linecap:butt;stroke-linejoin:miter;stroke:rgb(0%,0%,0%);stroke-opacity:1;stroke-miterlimit:10;" d="M 226.257812 57.121094 L 211.125 61.871094 "/>
<path style=" stroke:none;fill-rule:nonzero;fill:rgb(100%,100%,100%);fill-opacity:1;" d="M 228.386719 43.867188 L 255.386719 43.867188 L 255.386719 60.867188 L 228.386719 60.867188 Z M 228.386719 43.867188 "/>
<g style="fill:rgb(0%,0%,100%);fill-opacity:1;">
  <use xlink:href="#glyph0-2" x="228.386719" y="58.032227"/>
  <use xlink:href="#glyph0-3" x="237.363281" y="58.032227"/>
</g>
<g style="fill:rgb(0%,0%,100%);fill-opacity:1;">
  <use xlink:href="#glyph1-1" x="246.386719" y="53.149414"/>
</g>
<path style="fill:none;stroke-width:1.2;stroke-linecap:butt;stroke-linejoin:miter;stroke:rgb(0%,0%,0%);stroke-opacity:1;stroke-miterlimit:10;" d="M 211.125 61.871094 L 204.226562 92.832031 "/>
<path style="fill:none;stroke-width:1.2;stroke-linecap:butt;stroke-linejoin:miter;stroke:rgb(0%,0%,0%);stroke-opacity:1;stroke-miterlimit:10;" d="M 217.71875 66.59375 L 212.199219 91.359375 "/>
<path style="fill:none;stroke-width:1.2;stroke-linecap:butt;stroke-linejoin:miter;stroke:rgb(0%,0%,0%);stroke-opacity:1;stroke-miterlimit:10;" d="M 183.527344 185.710938 L 153.265625 195.21875 "/>
<path style="fill:none;stroke-width:1.2;stroke-linecap:butt;stroke-linejoin:miter;stroke:rgb(0%,0%,0%);stroke-opacity:1;stroke-miterlimit:10;" d="M 206.890625 207.167969 L 183.527344 185.710938 "/>
<path style="fill:none;stroke-width:1.2;stroke-linecap:butt;stroke-linejoin:miter;stroke:rgb(0%,0%,0%);stroke-opacity:1;stroke-miterlimit:10;" d="M 153.265625 195.21875 L 141.585938 184.488281 "/>
<path style="fill:none;stroke-width:1.2;stroke-linecap:butt;stroke-linejoin:miter;stroke:rgb(0%,0%,100%);stroke-opacity:1;stroke-miterlimit:10;" d="M 141.585938 184.488281 L 129.902344 173.761719 "/>
<path style="fill:none;stroke-width:1.2;stroke-linecap:butt;stroke-linejoin:miter;stroke:rgb(0%,0%,0%);stroke-opacity:1;stroke-miterlimit:10;" d="M 155.976562 187.574219 L 146.632812 178.992188 "/>
<path style="fill:none;stroke-width:1.2;stroke-linecap:butt;stroke-linejoin:miter;stroke:rgb(0%,0%,100%);stroke-opacity:1;stroke-miterlimit:10;" d="M 146.632812 178.992188 L 137.289062 170.410156 "/>
<path style="fill:none;stroke-width:1.2;stroke-linecap:butt;stroke-linejoin:miter;stroke:rgb(0%,0%,0%);stroke-opacity:1;stroke-miterlimit:10;" d="M 153.265625 195.21875 L 146.367188 226.175781 "/>
<path style=" stroke:none;fill-rule:nonzero;fill:rgb(100%,100%,100%);fill-opacity:1;" d="M 125.902344 166.761719 L 134.902344 166.761719 L 134.902344 180.761719 L 125.902344 180.761719 Z M 125.902344 166.761719 "/>
<g style="fill:rgb(0%,0%,100%);fill-opacity:1;">
  <use xlink:href="#glyph0-2" x="125.902344" y="177.900391"/>
</g>
<path style="fill:none;stroke-width:1.2;stroke-linecap:butt;stroke-linejoin:miter;stroke:rgb(0%,0%,0%);stroke-opacity:1;stroke-miterlimit:10;" d="M 146.367188 226.175781 L 169.726562 247.632812 "/>
<path style="fill:none;stroke-width:1.2;stroke-linecap:butt;stroke-linejoin:miter;stroke:rgb(0%,0%,0%);stroke-opacity:1;stroke-miterlimit:10;" d="M 153.75 222.824219 L 172.441406 239.988281 "/>
<path style="fill:none;stroke-width:1.2;stroke-linecap:butt;stroke-linejoin:miter;stroke:rgb(0%,0%,0%);stroke-opacity:1;stroke-miterlimit:10;" d="M 169.726562 247.632812 L 199.988281 238.128906 "/>
<path style="fill:none;stroke-width:1.2;stroke-linecap:butt;stroke-linejoin:miter;stroke:rgb(0%,0%,0%);stroke-opacity:1;stroke-miterlimit:10;" d="M 199.988281 238.128906 L 206.890625 207.167969 "/>
<path style="fill:none;stroke-width:1.2;stroke-linecap:butt;stroke-linejoin:miter;stroke:rgb(0%,0%,0%);stroke-opacity:1;stroke-miterlimit:10;" d="M 193.394531 233.40625 L 198.914062 208.640625 "/>
</g>
</svg>

<svg xmlns="http://www.w3.org/2000/svg" xmlns:xlink="http://www.w3.org/1999/xlink" width="300pt" height="300pt" viewBox="0 0 300 300"><defs><symbol overflow="visible"><path d="M.594 2.125V-8.47h6V2.126zm.672-.672h4.671V-7.78h-4.67zm0 0"/></symbol><symbol overflow="visible" id="a"><path d="M6.422-8.47v1.158c-.45-.208-.875-.364-1.28-.47-.4-.113-.78-.17-1.142-.17-.648 0-1.148.124-1.5.374-.344.25-.516.61-.516 1.078 0 .387.114.68.344.875.227.2.672.355 1.328.47L4.36-5c.882.168 1.535.465 1.952.89.426.42.64.98.64 1.688 0 .856-.288 1.5-.858 1.938-.563.437-1.4.656-2.5.656-.406 0-.844-.047-1.313-.14C1.814-.064 1.33-.204.83-.392v-1.22c.477.274.945.477 1.406.61.47.137.922.203 1.36.203.676 0 1.195-.13 1.562-.39.375-.27.563-.65.563-1.14 0-.427-.138-.76-.407-1-.262-.25-.696-.43-1.297-.548l-.72-.14c-.886-.176-1.526-.454-1.92-.83-.388-.374-.58-.893-.58-1.56 0-.782.27-1.392.813-1.83.538-.445 1.288-.67 2.25-.67.413 0 .83.038 1.25.108.425.074.863.184 1.312.328zm0 0"/></symbol><symbol overflow="visible" id="b"><path d="M1.172-8.75h1.594l3.89 7.313V-8.75h1.14V0H6.204L2.328-7.313V0H1.172zm0 0"/></symbol><symbol overflow="visible" id="c"><path d="M1.172-8.75H2.36v3.594h4.296V-8.75h1.188V0H6.656v-4.172H2.36V0H1.17zm0 0"/></symbol><symbol overflow="visible"><path d="M.5 1.766v-8.813h5v8.813zm.563-.547h3.875v-7.704H1.063zm0 0"/></symbol><symbol overflow="visible" id="d"><path d="M4.594-6.266v2.72h2.718v.827H4.595V0H3.78v-2.72H1.064v-.827H3.78v-2.72zm0 0"/></symbol></defs><g><path fill="#fff" d="M0 0h300v300H0z"/><path d="M117.066 89.836l-14.425-6.594" stroke-width="1.2" stroke="#cc0" stroke-miterlimit="10" fill="none"/><path d="M102.64 83.242l-14.42-6.594M113.44 121.348l1.814-15.758" stroke-width="1.2" stroke="#000" stroke-miterlimit="10" fill="none"/><path d="M115.254 105.59l1.812-15.754" stroke-width="1.2" stroke="#cc0" stroke-miterlimit="10" fill="none"/><path d="M113.066 82.836h8v14h-8zm0 0" fill="#fff"/><use xlink:href="#a" x="113.066" y="93.975" fill="#cc0"/><path d="M88.22 76.648L66.76 100.012M91.57 84.035l-17.168 18.688M66.762 100.012l7.793 13.812" stroke-width="1.2" stroke="#000" stroke-miterlimit="10" fill="none"/><path d="M74.555 113.824l7.797 13.813" stroke-width="1.2" stroke="#00f" stroke-miterlimit="10" fill="none"/><path d="M66.762 100.012L35.25 96.387" stroke-width="1.2" stroke="#000" stroke-miterlimit="10" fill="none"/><path d="M82.352 127.637l15.543-3.145" stroke-width="1.2" stroke="#00f" stroke-miterlimit="10" fill="none"/><path d="M97.895 124.492l15.546-3.144" stroke-width="1.2" stroke="#000" stroke-miterlimit="10" fill="none"/><path d="M83.98 119.69l12.434-2.514" stroke-width="1.2" stroke="#00f" stroke-miterlimit="10" fill="none"/><path d="M96.414 117.176l12.438-2.516" stroke-width="1.2" stroke="#000" stroke-miterlimit="10" fill="none"/><path d="M78.352 120.637h9v14h-9zm0 0" fill="#fff"/><use xlink:href="#b" x="78.352" y="131.775" fill="#00f"/><path d="M113.44 121.348L136.8 142.8M136.8 142.8l15.134-4.75" stroke-width="1.2" stroke="#000" stroke-miterlimit="10" fill="none"/><path d="M151.934 138.05l15.132-4.753" stroke-width="1.2" stroke="#00f" stroke-miterlimit="10" fill="none"/><path d="M142.066 148.973l12.102-3.8" stroke-width="1.2" stroke="#000" stroke-miterlimit="10" fill="none"/><path d="M154.168 145.172l12.105-3.805M129.902 173.762l3.45-15.48" stroke-width="1.2" stroke="#00f" stroke-miterlimit="10" fill="none"/><path d="M133.352 158.28l3.45-15.48" stroke-width="1.2" stroke="#000" stroke-miterlimit="10" fill="none"/><path d="M167.066 133.297l11.68 10.726" stroke-width="1.2" stroke="#00f" stroke-miterlimit="10" fill="none"/><path d="M178.746 144.023l11.68 10.73" stroke-width="1.2" stroke="#000" stroke-miterlimit="10" fill="none"/><path d="M163.066 126.297h9v14h-9zm0 0" fill="#fff"/><use xlink:href="#b" x="163.066" y="137.436" fill="#00f"/><path d="M190.426 154.754L205.56 150" stroke-width="1.2" stroke="#000" stroke-miterlimit="10" fill="none"/><path d="M205.56 150l15.127-4.754" stroke-width="1.2" stroke="#00f" stroke-miterlimit="10" fill="none"/><path d="M190.426 154.754l-6.9 30.957M182.453 156.227l-5.52 24.765" stroke-width="1.2" stroke="#000" stroke-miterlimit="10" fill="none"/><path d="M220.688 145.246l3.45-15.476" stroke-width="1.2" stroke="#00f" stroke-miterlimit="10" fill="none"/><path d="M224.137 129.77l3.453-15.48" stroke-width="1.2" stroke="#000" stroke-miterlimit="10" fill="none"/><path d="M211.688 138.246h18v14h-18zm0 0" fill="#fff"/><g fill="#00f"><use xlink:href="#b" x="211.688" y="149.385"/><use xlink:href="#c" x="220.664" y="149.385"/></g><path d="M227.59 114.29l30.262-9.51M228.38 106.215l24.206-7.602M204.227 92.832l23.363 21.457M257.852 104.78l6.898-30.956M264.75 73.824l-11.68-10.73" stroke-width="1.2" stroke="#000" stroke-miterlimit="10" fill="none"/><path d="M253.07 63.094l-11.683-10.727" stroke-width="1.2" stroke="#00f" stroke-miterlimit="10" fill="none"/><path d="M257.367 77.176l-9.347-8.582" stroke-width="1.2" stroke="#000" stroke-miterlimit="10" fill="none"/><path d="M248.02 68.594l-9.344-8.582M241.387 52.367l-15.13 4.754" stroke-width="1.2" stroke="#00f" stroke-miterlimit="10" fill="none"/><path d="M226.258 57.12l-15.133 4.75" stroke-width="1.2" stroke="#000" stroke-miterlimit="10" fill="none"/><path d="M228.387 43.867h27v17h-27zm0 0" fill="#fff"/><g fill="#00f"><use xlink:href="#b" x="228.387" y="58.032"/><use xlink:href="#c" x="237.363" y="58.032"/></g><use xlink:href="#d" x="246.387" y="53.149" fill="#00f"/><path d="M211.125 61.87l-6.898 30.962M217.72 66.594L212.2 91.36M183.527 185.71l-30.26 9.51M206.89 207.168l-23.363-21.457M153.266 195.22l-11.68-10.732" stroke-width="1.2" stroke="#000" stroke-miterlimit="10" fill="none"/><path d="M141.586 184.488l-11.684-10.726" stroke-width="1.2" stroke="#00f" stroke-miterlimit="10" fill="none"/><path d="M155.977 187.574l-9.344-8.582" stroke-width="1.2" stroke="#000" stroke-miterlimit="10" fill="none"/><path d="M146.633 178.992l-9.344-8.582" stroke-width="1.2" stroke="#00f" stroke-miterlimit="10" fill="none"/><path d="M153.266 195.22l-6.9 30.956" stroke-width="1.2" stroke="#000" stroke-miterlimit="10" fill="none"/><path d="M125.902 166.762h9v14h-9zm0 0" fill="#fff"/><use xlink:href="#b" x="125.902" y="177.9" fill="#00f"/><path d="M146.367 226.176l23.36 21.457M153.75 222.824l18.69 17.164M169.727 247.633l30.26-9.504M199.988 238.13l6.903-30.962M193.395 233.406l5.52-24.765" stroke-width="1.2" stroke="#000" stroke-miterlimit="10" fill="none"/></g></svg>
